svgs/regular/calendar-image.svg

<svg xmlns="http://www.w3.org/2000/svg" viewBox="0 0 448 512"><!--! Font Awesome Pro 6.6.0 by @fontawesome - https://fontawesome.com License - https://fontawesome.com/license (Commercial License) Copyright 2024 Fonticons, Inc. --><path d="M152 24c0-13.3-10.7-24-24-24s-24 10.7-24 24l0 40L64 64C28.7 64 0 92.7 0 128l0 16 0 48L0 448c0 35.3 28.7 64 64 64l320 0c35.3 0 64-28.7 64-64l0-256 0-48 0-16c0-35.3-28.7-64-64-64l-40 0 0-40c0-13.3-10.7-24-24-24s-24 10.7-24 24l0 40L152 64l0-40zM48 192l352 0 0 256c0 8.8-7.2 16-16 16L64 464c-8.8 0-16-7.2-16-16l0-256zm99.2 136.7L99.8 390.2c-8.1 10.5-.6 25.8 12.7 25.8l226.4 0c12.6 0 20.3-13.9 13.5-24.6L268.9 260.3c-6.1-9.7-20.1-9.9-26.7-.5L184 344l-11.4-15.1c-6.4-8.5-19-8.5-25.5-.2zM128 288a32 32 0 1 0 0-64 32 32 0 1 0 0 64z"/></svg>

<svg xmlns="http://www.w3.org/2000/svg" viewBox="0 0 448 512"><!--! Font Awesome Pro 6.4.0 by @fontawesome - https://fontawesome.com License - https://fontawesome.com/license (Commercial License) Copyright 2023 Fonticons, Inc. --><path d="M152 24c0-13.3-10.7-24-24-24s-24 10.7-24 24V64H64C28.7 64 0 92.7 0 128v16 48V448c0 35.3 28.7 64 64 64H384c35.3 0 64-28.7 64-64V192 144 128c0-35.3-28.7-64-64-64H344V24c0-13.3-10.7-24-24-24s-24 10.7-24 24V64H152V24zM48 192H400V448c0 8.8-7.2 16-16 16H64c-8.8 0-16-7.2-16-16V192zm99.2 136.7L99.8 390.2c-8.1 10.5-.6 25.8 12.7 25.8H338.9c12.6 0 20.3-13.9 13.5-24.6L268.9 260.3c-6.1-9.7-20.1-9.9-26.7-.5L184 344l-11.4-15.1c-6.4-8.5-19-8.5-25.5-.2zM128 288a32 32 0 1 0 0-64 32 32 0 1 0 0 64z"/></svg>
